; generated by Slic3r 1.2.9 on 2019-02-24 at 14:56:06

; external perimeters extrusion width = 0.50mm
; perimeters extrusion width = 0.52mm
; infill extrusion width = 0.52mm
; solid infill extrusion width = 0.52mm
; top infill extrusion width = 0.52mm
; support material extrusion width = 0.50mm

M107
M190 S75 ; set bed temperature
M104 S240 ; set temperature
G28 ; home all axes
G1 Z5 F5000 ; lift nozzle

M109 S240 ; wait for temperature to be reached
G21 ; set units to millimeters
G90 ; use absolute coordinates
M82 ; use absolute distances for extrusion
G92 E0
G1 Z0.900 F3600.000
G1 E-2.00000 F2400.00000
G92 E0
G1 X69.043 Y83.645 F3600.000
G1 E2.00000 F2400.00000
G1 X70.981 Y82.335 E2.43418 F1800.000
G1 X73.816 Y81.724 E2.97245
G1 X126.256 Y81.724 E12.70363
G1 X128.981 Y82.286 E13.21999 F1800.000
G1 X131.010 Y83.592 E13.66783
G1 X132.431 Y85.451 E14.10201
G1 X133.217 Y88.625 E14.70877
G1 X133.219 Y111.097 E18.87903
G1 X132.489 Y114.186 E19.46797
G1 X132.346 Y114.471 E19.52724
G1 X130.957 Y116.355 E19.96142
G1 X129.019 Y117.665 E20.39560
G1 X126.184 Y118.276 E20.93387
G1 X73.744 Y118.276 E30.66504
G1 X71.017 Y117.713 E31.18177
G1 X70.949 Y117.684 E31.19562
G1 X68.988 Y116.407 E31.62980
G1 X67.568 Y114.547 E32.06398
G1 X66.783 Y111.375 E32.67045
G1 X66.781 Y88.903 E36.84066
G1 X67.511 Y85.814 E37.42960
G1 X67.654 Y85.529 E37.48884
G1 X68.998 Y83.706 E37.90910
G1 E35.90910 F2400.00000
G92 E0
G1 X73.813 Y88.625 F3600.000
G1 E2.00000 F2400.00000
G1 X73.677 Y88.895 E2.02470 F1800.000
G1 X73.677 Y89.773 E2.09634
G1 X74.253 Y88.625 E2.20118
G1 X74.692 Y88.625 E2.23708
G1 X73.677 Y90.650 E2.42205
G1 X73.677 Y91.528 E2.49369
G1 X75.132 Y88.625 E2.75879
G1 X75.572 Y88.625 E2.79469
G1 X73.677 Y92.405 E3.13993
G1 X73.677 Y93.283 E3.21157
G1 X76.012 Y88.625 E3.63694
G1 X76.452 Y88.625 E3.67284
G1 X73.677 Y94.161 E4.17834
G1 X73.677 Y95.038 E4.24998
G1 X76.892 Y88.625 E4.83562
G1 X77.331 Y88.625 E4.87152
G1 X73.677 Y95.916 E5.53729
G1 X73.677 Y96.793 E5.60893
G1 X77.771 Y88.625 E6.35483
G1 X78.211 Y88.625 E6.39074
G1 X73.677 Y97.671 E7.21677
G1 X73.677 Y98.548 E7.28841
G1 X78.651 Y88.625 E8.19458
G1 X79.091 Y88.625 E8.23048
G1 X73.677 Y99.426 E9.21678
G1 X73.677 Y100.304 E9.28842
G1 X79.531 Y88.625 E10.35486
G1 X79.971 Y88.625 E10.39076
G1 X73.677 Y101.181 E11.53733
G1 X73.677 Y102.059 E11.60897
G1 X80.410 Y88.625 E12.83567
G1 X80.850 Y88.625 E12.87158
G1 X73.677 Y102.936 E14.17841
G1 X73.677 Y103.814 E14.25005
G1 X81.290 Y88.625 E15.63702
G1 X81.730 Y88.625 E15.67292
G1 X73.677 Y104.691 E17.14003
G1 X73.677 Y105.569 E17.21166
G1 X82.170 Y88.625 E18.75890
G1 X82.610 Y88.625 E18.79480
G1 X73.677 Y106.447 E20.42217
G1 X73.677 Y107.324 E20.49381
G1 X83.049 Y88.625 E22.20131
G1 X83.489 Y88.625 E22.23722
G1 X73.677 Y108.202 E24.02485
G1 X73.677 Y109.079 E24.09649
G1 X83.929 Y88.625 E25.96426
G1 X84.369 Y88.625 E26.00017
G1 X73.677 Y109.957 E27.94807
G1 X73.677 Y110.835 E28.01971
G1 X84.809 Y88.625 E30.04774
G1 X85.249 Y88.625 E30.08365
G1 X73.846 Y111.375 E32.16107
G1 X74.286 Y111.375 E32.19698
G1 X85.688 Y88.625 E34.27440
G1 X86.128 Y88.625 E34.31031
G1 X74.726 Y111.375 E36.38773
G1 X75.165 Y111.375 E36.42364
G1 X86.568 Y88.625 E38.50107
G1 X87.008 Y88.625 E38.53697
G1 X75.605 Y111.375 E40.61440
G1 X76.045 Y111.375 E40.65030
G1 X87.448 Y88.625 E42.72773
G1 X87.888 Y88.625 E42.76363
G1 X76.485 Y111.375 E44.84106
G1 X76.925 Y111.375 E44.87697
G1 X88.328 Y88.625 E46.95439
G1 X88.767 Y88.625 E46.99030
G1 X77.365 Y111.375 E49.06772
G1 X77.804 Y111.375 E49.10363
G1 X89.207 Y88.625 E51.18105
G1 X89.647 Y88.625 E51.21696
G1 X78.244 Y111.375 E53.29439
G1 X78.684 Y111.375 E53.33029
G1 X90.087 Y88.625 E55.40772
G1 X90.527 Y88.625 E55.44362
G1 X79.124 Y111.375 E57.52105
G1 X79.564 Y111.375 E57.55695
G1 X90.967 Y88.625 E59.63438
G1 X91.406 Y88.625 E59.67029
G1 X80.004 Y111.375 E61.74771
G1 X80.444 Y111.375 E61.78362
G1 X91.846 Y88.625 E63.86104
G1 X92.286 Y88.625 E63.89695
G1 X80.883 Y111.375 E65.97437
G1 X81.323 Y111.375 E66.01028
G1 X92.726 Y88.625 E68.08771
G1 X93.166 Y88.625 E68.12361
G1 X81.763 Y111.375 E70.20104
G1 X82.203 Y111.375 E70.23694
G1 X93.606 Y88.625 E72.31437
G1 X94.046 Y88.625 E72.35028
G1 X82.643 Y111.375 E74.42770
G1 X83.083 Y111.375 E74.46361
G1 X94.485 Y88.625 E76.54103
G1 X94.925 Y88.625 E76.57694
G1 X83.522 Y111.375 E78.65436
G1 X83.962 Y111.375 E78.69027
G1 X95.365 Y88.625 E80.76770
G1 X95.805 Y88.625 E80.80360
G1 X84.402 Y111.375 E82.88103
G1 X84.842 Y111.375 E82.91693
G1 X96.245 Y88.625 E84.99436
G1 X96.685 Y88.625 E85.03026
G1 X85.282 Y111.375 E87.10769
G1 X85.722 Y111.375 E87.14360
G1 X97.124 Y88.625 E89.22102
G1 X97.564 Y88.625 E89.25693
G1 X86.161 Y111.375 E91.33435
G1 X86.601 Y111.375 E91.37026
G1 X98.004 Y88.625 E93.44768
G1 X98.444 Y88.625 E93.48359
G1 X87.041 Y111.375 E95.56102
G1 X87.481 Y111.375 E95.59692
G1 X98.884 Y88.625 E97.67435
G1 X99.324 Y88.625 E97.71025
G1 X87.921 Y111.375 E99.78768
G1 X88.361 Y111.375 E99.82358
G1 X99.763 Y88.625 E101.90101
G1 X100.203 Y88.625 E101.93692
G1 X88.801 Y111.375 E104.01434
G1 X89.240 Y111.375 E104.05025
G1 X100.643 Y88.625 E106.12767
G1 X101.083 Y88.625 E106.16358
G1 X89.680 Y111.375 E108.24101
G1 X90.120 Y111.375 E108.27691
G1 X101.523 Y88.625 E110.35434
G1 X101.963 Y88.625 E110.39024
G1 X90.560 Y111.375 E112.46767
G1 X91.000 Y111.375 E112.50357
G1 X102.403 Y88.625 E114.58100
G1 X102.842 Y88.625 E114.61691
G1 X91.440 Y111.375 E116.69433
G1 X91.879 Y111.375 E116.73024
G1 X103.282 Y88.625 E118.80766
G1 X103.722 Y88.625 E118.84357
G1 X92.319 Y111.375 E120.92099
G1 X92.759 Y111.375 E120.95690
G1 X104.162 Y88.625 E123.03433
G1 X104.602 Y88.625 E123.07023
G1 X93.199 Y111.375 E125.14766
G1 X93.639 Y111.375 E125.18356
G1 X105.042 Y88.625 E127.26099
G1 X105.481 Y88.625 E127.29689
G1 X94.079 Y111.375 E129.37432
G1 X94.519 Y111.375 E129.41023
G1 X105.921 Y88.625 E131.48765
G1 X106.361 Y88.625 E131.52356
G1 X94.958 Y111.375 E133.60098
G1 X95.398 Y111.375 E133.63689
G1 X106.801 Y88.625 E135.71431
G1 X107.241 Y88.625 E135.75022
G1 X95.838 Y111.375 E137.82765
G1 X96.278 Y111.375 E137.86355
G1 X107.681 Y88.625 E139.94098
G1 X108.121 Y88.625 E139.97688
G1 X96.718 Y111.375 E142.05431
G1 X97.158 Y111.375 E142.09021
G1 X108.560 Y88.625 E144.16764
G1 X109.000 Y88.625 E144.20355
G1 X97.597 Y111.375 E146.28097
G1 X98.037 Y111.375 E146.31688
G1 X109.440 Y88.625 E148.39430
G1 X109.880 Y88.625 E148.43021
G1 X98.477 Y111.375 E150.50763
G1 X98.917 Y111.375 E150.54354
G1 X110.320 Y88.625 E152.62097
G1 X110.760 Y88.625 E152.65687
G1 X99.357 Y111.375 E154.73430
G1 X99.797 Y111.375 E154.77020
G1 X111.199 Y88.625 E156.84763
G1 X111.639 Y88.625 E156.88354
G1 X100.236 Y111.375 E158.96096
G1 X100.676 Y111.375 E158.99687
G1 X112.079 Y88.625 E161.07429
G1 X112.519 Y88.625 E161.11020
G1 X101.116 Y111.375 E163.18762
G1 X101.556 Y111.375 E163.22353
G1 X112.959 Y88.625 E165.30096
G1 X113.399 Y88.625 E165.33686
G1 X101.996 Y111.375 E167.41429
G1 X102.436 Y111.375 E167.45019
G1 X113.838 Y88.625 E169.52762
G1 X114.278 Y88.625 E169.56352
G1 X102.876 Y111.375 E171.64095
G1 X103.315 Y111.375 E171.67686
G1 X114.718 Y88.625 E173.75428
G1 X115.158 Y88.625 E173.79019
G1 X103.755 Y111.375 E175.86761
G1 X104.195 Y111.375 E175.90352
G1 X115.598 Y88.625 E177.98094
G1 X116.038 Y88.625 E178.01685
G1 X104.635 Y111.375 E180.09428
G1 X105.075 Y111.375 E180.13018
G1 X116.478 Y88.625 E182.20761
G1 X116.917 Y88.625 E182.24351
G1 X105.515 Y111.375 E184.32094
G1 X105.954 Y111.375 E184.35684
G1 X117.357 Y88.625 E186.43427
G1 X117.797 Y88.625 E186.47018
G1 X106.394 Y111.375 E188.54760
G1 X106.834 Y111.375 E188.58351
G1 X118.237 Y88.625 E190.66093
G1 X118.677 Y88.625 E190.69684
G1 X107.274 Y111.375 E192.77426
G1 X107.714 Y111.375 E192.81017
G1 X119.117 Y88.625 E194.88760
G1 X119.556 Y88.625 E194.92350
G1 X108.154 Y111.375 E197.00093
G1 X108.594 Y111.375 E197.03683
G1 X119.996 Y88.625 E199.11426
G1 X120.436 Y88.625 E199.15016
G1 X109.033 Y111.375 E201.22759
G1 X109.473 Y111.375 E201.26350
G1 X120.876 Y88.625 E203.34092
G1 X121.316 Y88.625 E203.37683
G1 X109.913 Y111.375 E205.45425
G1 X110.353 Y111.375 E205.49016
G1 X121.756 Y88.625 E207.56758
G1 X122.196 Y88.625 E207.60349
G1 X110.793 Y111.375 E209.68092
G1 X111.233 Y111.375 E209.71682
G1 X122.635 Y88.625 E211.79425
G1 X123.075 Y88.625 E211.83015
G1 X111.672 Y111.375 E213.90758
G1 X112.112 Y111.375 E213.94349
G1 X123.515 Y88.625 E216.02091
G1 X123.955 Y88.625 E216.05682
G1 X112.552 Y111.375 E218.13424
G1 X112.992 Y111.375 E218.17015
G1 X124.395 Y88.625 E220.24757
G1 X124.835 Y88.625 E220.28348
G1 X113.432 Y111.375 E222.36091
G1 X113.872 Y111.375 E222.39681
G1 X125.274 Y88.625 E224.47424
G1 X125.714 Y88.625 E224.51014
G1 X114.311 Y111.375 E226.58757
G1 X114.751 Y111.375 E226.62347
G1 X126.154 Y88.625 E228.70090
G1 X126.323 Y89.165 E228.74715
G1 X115.191 Y111.375 E230.77519
G1 X115.631 Y111.375 E230.81110
G1 X126.323 Y90.043 E232.75900
G1 X126.323 Y90.921 E232.83064
G1 X116.071 Y111.375 E234.69841
G1 X116.511 Y111.375 E234.73431
G1 X126.323 Y91.798 E236.52195
G1 X126.323 Y92.676 E236.59359
G1 X116.951 Y111.375 E238.30110
G1 X117.390 Y111.375 E238.33700
G1 X126.323 Y93.553 E239.96437
G1 X126.323 Y94.431 E240.03601
G1 X117.830 Y111.375 E241.58325
G1 X118.270 Y111.375 E241.61915
G1 X126.323 Y95.308 E243.08626
G1 X126.323 Y96.186 E243.15790
G1 X118.710 Y111.375 E244.54487
G1 X119.150 Y111.375 E244.58077
G1 X126.323 Y97.064 E245.88761
G1 X126.323 Y97.941 E245.95925
G1 X119.590 Y111.375 E247.18595
G1 X120.029 Y111.375 E247.22186
G1 X126.323 Y98.819 E248.36843
G1 X126.323 Y99.696 E248.44007
G1 X120.469 Y111.375 E249.50651
G1 X120.909 Y111.375 E249.54241
G1 X126.323 Y100.574 E250.52872
G1 X126.323 Y101.452 E250.60036
G1 X121.349 Y111.375 E251.50653
G1 X121.789 Y111.375 E251.54243
G1 X126.323 Y102.329 E252.36847
G1 X126.323 Y103.207 E252.44011
G1 X122.229 Y111.375 E253.18601
G1 X122.669 Y111.375 E253.22192
G1 X126.323 Y104.084 E253.88769
G1 X126.323 Y104.962 E253.95933
G1 X123.108 Y111.375 E254.54497
G1 X123.548 Y111.375 E254.58087
G1 X126.323 Y105.839 E255.08638
G1 X126.323 Y106.717 E255.15802
G1 X123.988 Y111.375 E255.58339
G1 X124.428 Y111.375 E255.61929
G1 X126.323 Y107.595 E255.96453
G1 X126.323 Y108.472 E256.03617
G1 X124.868 Y111.375 E256.30127
G1 X125.308 Y111.375 E256.33718
G1 X126.323 Y109.350 E256.52215
G1 X126.323 Y110.227 E256.59379
G1 X125.747 Y111.375 E256.69863
G1 X126.323 Y111.105 E256.75053
G1 X126.187 Y111.375 E256.77524
M104 S230 ; set temperature
M140 S60 ; wait for bed temperature to be reached
G1 Z1.280 F3600.000
G1 X126.184 Y111.382 F3600.000
G1 X126.326 Y111.098 E256.79627 F3600.000
G1 X125.715 Y111.382 E256.84085
G1 X126.326 Y110.162 E256.93107
G1 X126.326 Y109.227 E256.99292
G1 X125.246 Y111.382 E257.15233
G1 X124.777 Y111.382 E257.18333
G1 X126.326 Y108.291 E257.41193
G1 X126.326 Y107.355 E257.47378
G1 X124.308 Y111.382 E257.77157
G1 X123.839 Y111.382 E257.80257
G1 X126.326 Y106.420 E258.16955
G1 X126.326 Y105.484 E258.23140
G1 X123.370 Y111.382 E258.66757
G1 X122.901 Y111.382 E258.69857
G1 X126.326 Y104.548 E259.20393
G1 X126.326 Y103.613 E259.26578
G1 X122.432 Y111.382 E259.84033
G1 X121.963 Y111.382 E259.87133
G1 X126.326 Y102.677 E260.51506
G1 X126.326 Y101.741 E260.57692
G1 X121.494 Y111.382 E261.28984
G1 X121.025 Y111.382 E261.32085
G1 X126.326 Y100.806 E262.10296
G1 X126.326 Y99.870 E262.16481
G1 X120.556 Y111.382 E263.01612
G1 X120.087 Y111.382 E263.04712
G1 X126.326 Y98.934 E263.96761
G1 X126.326 Y97.999 E264.02947
G1 X119.619 Y111.382 E265.01915
G1 X119.150 Y111.382 E265.05015
G1 X126.326 Y97.063 E266.10903
G1 X126.326 Y96.128 E266.17088
G1 X118.681 Y111.382 E267.29894
G1 X118.212 Y111.382 E267.32995
G1 X126.326 Y95.192 E268.52720
G1 X126.326 Y94.256 E268.58905
G1 X117.743 Y111.382 E269.85550
G1 X117.274 Y111.382 E269.88650
G1 X126.326 Y93.321 E271.22213
G1 X126.326 Y92.385 E271.28398
G1 X116.805 Y111.382 E272.68881
G1 X116.336 Y111.382 E272.71981
G1 X126.326 Y91.449 E274.19382
G1 X126.326 Y90.514 E274.25567
G1 X115.867 Y111.382 E275.79887
G1 X115.398 Y111.382 E275.82988
G1 X126.326 Y89.578 E277.44227
G1 X126.324 Y88.647 E277.50384
G1 X114.929 Y111.382 E279.18510
G1 X114.460 Y111.382 E279.21610
G1 X125.870 Y88.618 E280.89950
G1 X125.401 Y88.618 E280.93050
G1 X113.991 Y111.382 E282.61391
G1 X113.522 Y111.382 E282.64491
G1 X124.932 Y88.618 E284.32831
G1 X124.463 Y88.618 E284.35931
G1 X113.053 Y111.382 E286.04271
G1 X112.584 Y111.382 E286.07372
G1 X123.994 Y88.618 E287.75712
G1 X123.525 Y88.618 E287.78812
G1 X112.115 Y111.382 E289.47152
G1 X111.646 Y111.382 E289.50252
G1 X123.056 Y88.618 E291.18593
G1 X122.587 Y88.618 E291.21693
G1 X111.177 Y111.382 E292.90033
G1 X110.708 Y111.382 E292.93133
G1 X122.118 Y88.618 E294.61473
G1 X121.649 Y88.618 E294.64574
G1 X110.239 Y111.382 E296.32914
G1 X109.771 Y111.382 E296.36014
G1 X121.180 Y88.618 E298.04354
G1 X120.711 Y88.618 E298.07454
G1 X109.302 Y111.382 E299.75794
G1 X108.833 Y111.382 E299.78895
G1 X120.242 Y88.618 E301.47235
G1 X119.773 Y88.618 E301.50335
G1 X108.364 Y111.382 E303.18675
G1 X107.895 Y111.382 E303.21775
G1 X119.304 Y88.618 E304.90116
G1 X118.835 Y88.618 E304.93216
G1 X107.426 Y111.382 E306.61556
G1 X106.957 Y111.382 E306.64656
G1 X118.367 Y88.618 E308.32996
G1 X117.898 Y88.618 E308.36097
G1 X106.488 Y111.382 E310.04437
G1 X106.019 Y111.382 E310.07537
G1 X117.429 Y88.618 E311.75877
G1 X116.960 Y88.618 E311.78977
G1 X105.550 Y111.382 E313.47317
G1 X105.081 Y111.382 E313.50418
G1 X116.491 Y88.618 E315.18758
G1 X116.022 Y88.618 E315.21858
G1 X104.612 Y111.382 E316.90198
G1 X104.143 Y111.382 E316.93298
G1 X115.553 Y88.618 E318.61639
G1 X115.084 Y88.618 E318.64739
G1 X103.674 Y111.382 E320.33079
G1 X103.205 Y111.382 E320.36179
G1 X114.615 Y88.618 E322.04519
G1 X114.146 Y88.618 E322.07620
G1 X102.736 Y111.382 E323.75960
G1 X102.267 Y111.382 E323.79060
G1 X113.677 Y88.618 E325.47400
G1 X113.208 Y88.618 E325.50500
G1 X101.798 Y111.382 E327.18841
G1 X101.329 Y111.382 E327.21941
G1 X112.739 Y88.618 E328.90281
G1 X112.270 Y88.618 E328.93381
G1 X100.860 Y111.382 E330.61721
G1 X100.391 Y111.382 E330.64821
G1 X111.801 Y88.618 E332.33162
G1 X111.332 Y88.618 E332.36262
G1 X99.923 Y111.382 E334.04602
G1 X99.454 Y111.382 E334.07702
G1 X110.863 Y88.618 E335.76042
G1 X110.394 Y88.618 E335.79143
G1 X98.985 Y111.382 E337.47483
G1 X98.516 Y111.382 E337.50583
G1 X109.925 Y88.618 E339.18923
G1 X109.456 Y88.618 E339.22023
G1 X98.047 Y111.382 E340.90364
G1 X97.578 Y111.382 E340.93464
G1 X108.987 Y88.618 E342.61804
G1 X108.519 Y88.618 E342.64904
G1 X97.109 Y111.382 E344.33244
G1 X96.640 Y111.382 E344.36345
G1 X108.050 Y88.618 E346.04685
G1 X107.581 Y88.618 E346.07785
G1 X96.171 Y111.382 E347.76125
G1 X95.702 Y111.382 E347.79225
G1 X107.112 Y88.618 E349.47565
G1 X106.643 Y88.618 E349.50666
G1 X95.233 Y111.382 E351.19006
G1 X94.764 Y111.382 E351.22106
G1 X106.174 Y88.618 E352.90446
G1 X105.705 Y88.618 E352.93546
G1 X94.295 Y111.382 E354.61887
G1 X93.826 Y111.382 E354.64987
G1 X105.236 Y88.618 E356.33327
G1 X104.767 Y88.618 E356.36427
G1 X93.357 Y111.382 E358.04767
G1 X92.888 Y111.382 E358.07868
G1 X104.298 Y88.618 E359.76208
G1 X103.829 Y88.618 E359.79308
G1 X92.419 Y111.382 E361.47648
G1 X91.950 Y111.382 E361.50748
G1 X103.360 Y88.618 E363.19089
G1 X102.891 Y88.618 E363.22189
G1 X91.481 Y111.382 E364.90529
G1 X91.012 Y111.382 E364.93629
G1 X102.422 Y88.618 E366.61969
G1 X101.953 Y88.618 E366.65070
G1 X90.544 Y111.382 E368.33410
G1 X90.075 Y111.382 E368.36510
G1 X101.484 Y88.618 E370.04850
G1 X101.015 Y88.618 E370.07950
G1 X89.606 Y111.382 E371.76290
G1 X89.137 Y111.382 E371.79391
G1 X100.546 Y88.618 E373.47731
G1 X100.077 Y88.618 E373.50831
G1 X88.668 Y111.382 E375.19171
G1 X88.199 Y111.382 E375.22271
G1 X99.608 Y88.618 E376.90612
G1 X99.140 Y88.618 E376.93712
G1 X87.730 Y111.382 E378.62052
G1 X87.261 Y111.382 E378.65152
G1 X98.671 Y88.618 E380.33492
G1 X98.202 Y88.618 E380.36593
G1 X86.792 Y111.382 E382.04933
G1 X86.323 Y111.382 E382.08033
G1 X97.733 Y88.618 E383.76373
G1 X97.264 Y88.618 E383.79473
G1 X85.854 Y111.382 E385.47813
G1 X85.385 Y111.382 E385.50914
G1 X96.795 Y88.618 E387.19254
