; generated by Slic3r 1.2.9 on 2019-01-03 at 12:14:14

; external perimeters extrusion width = 0.50mm
; perimeters extrusion width = 0.52mm
; infill extrusion width = 0.52mm
; solid infill extrusion width = 0.52mm
; top infill extrusion width = 0.52mm
; support material extrusion width = 0.50mm

M107
M190 S75 ; set bed temperature
M104 S240 ; set temperature
G28 ; home all axes
G1 Z5 F5000 ; lift nozzle

M109 S240 ; wait for temperature to be reached
G21 ; set units to millimeters
G90 ; use absolute coordinates
M82 ; use absolute distances for extrusion
G92 E0
G1 Z0.900 F3600.000
G1 E-2.00000 F2400.00000
G92 E0
G1 X81.339 Y80.953 F3600.000
G1 E2.00000 F2400.00000
G1 X83.277 Y79.642 E2.43418 F1800.000
G1 X86.113 Y79.032 E2.97245
G1 X113.888 Y79.032 E8.12678
G1 X116.194 Y79.429 E8.56096
G1 X118.234 Y80.575 E8.99514 F1800.000
G1 X119.773 Y82.337 E9.42932
G1 X120.620 Y84.442 E9.85049
G1 X120.754 Y85.054 E9.96662
G1 X120.916 Y86.536 E10.24329
G1 X120.916 Y113.805 E15.30364
G1 X120.185 Y116.893 E15.89258
G1 X120.049 Y117.164 E15.94874
G1 X118.661 Y119.047 E16.38292
G1 X116.723 Y120.358 E16.81710
G1 X113.887 Y120.968 E17.35537
G1 X86.112 Y120.968 E22.50970
G1 X83.806 Y120.571 E22.94388
G1 X81.766 Y119.425 E23.37806
G1 X80.227 Y117.663 E23.81224
G1 X79.380 Y115.557 E24.23343
G1 X79.246 Y114.946 E24.34956
G1 X79.084 Y113.464 E24.62621
G1 X79.084 Y86.195 E29.68655
G1 X79.815 Y83.107 E30.27550
G1 X79.951 Y82.836 E30.33165
G1 X81.294 Y81.013 E30.75191
G1 E28.75191 F2400.00000
G92 E0
G1 X86.113 Y85.925 F3600.000
G1 E2.00000 F2400.00000
G1 X85.977 Y86.195 E2.02470 F1800.000
G1 X85.977 Y87.075 F3600.000
G1 X86.554 Y85.925 E2.12973 F1800.000
G1 X86.994 Y85.925 E2.16572
G1 X85.977 Y87.954 E2.35106
G1 X85.977 Y88.834 F3600.000
G1 X87.435 Y85.925 E2.61673 F1800.000
G1 X87.876 Y85.925 E2.65273
G1 X85.977 Y89.714 E2.99872
G1 X85.977 Y90.593 F3600.000
G1 X88.317 Y85.925 E3.42503 F1800.000
G1 X88.758 Y85.925 E3.46102
G1 X85.977 Y91.473 E3.96766
G1 X85.977 Y92.353 F3600.000
G1 X89.199 Y85.925 E4.55462 F1800.000
G1 X89.640 Y85.925 E4.59061
G1 X85.977 Y93.232 E5.25789
G1 X85.977 Y94.112 F3600.000
G1 X90.081 Y85.925 E6.00550 F1800.000
G1 X90.522 Y85.925 E6.04149
G1 X85.977 Y94.992 E6.86942
G1 X85.977 Y95.871 F3600.000
G1 X90.962 Y85.925 E7.77767 F1800.000
G1 X91.403 Y85.925 E7.81366
G1 X85.977 Y96.751 E8.80223
G1 X85.977 Y97.631 F3600.000
G1 X91.844 Y85.925 E9.87113 F1800.000
G1 X92.285 Y85.925 E9.90712
G1 X85.977 Y98.510 E11.05634
G1 X85.977 Y99.390 F3600.000
G1 X92.726 Y85.925 E12.28588 F1800.000
G1 X93.167 Y85.925 E12.32187
G1 X85.977 Y100.269 E13.63173
G1 X85.977 Y101.149 F3600.000
G1 X93.608 Y85.925 E15.02192 F1800.000
G1 X94.049 Y85.925 E15.05791
G1 X85.977 Y102.029 E16.52842
G1 X85.977 Y102.908 F3600.000
G1 X94.489 Y85.925 E18.07925 F1800.000
G1 X94.930 Y85.925 E18.11524
G1 X85.977 Y103.788 E19.74639
G1 X85.977 Y104.668 F3600.000
G1 X95.371 Y85.925 E21.45787 F1800.000
G1 X95.812 Y85.925 E21.49386
G1 X85.977 Y105.547 E23.28566
G1 X85.977 Y106.427 F3600.000
G1 X96.253 Y85.925 E25.15778 F1800.000
G1 X96.694 Y85.925 E25.19377
G1 X85.977 Y107.307 E27.14621
G1 X85.977 Y108.186 F3600.000
G1 X97.135 Y85.925 E29.17898 F1800.000
G1 X97.576 Y85.925 E29.21497
G1 X85.977 Y109.066 E31.32806
G1 X85.977 Y109.946 F3600.000
G1 X98.017 Y85.925 E33.52147 F1800.000
G1 X98.457 Y85.925 E33.55746
G1 X85.977 Y110.825 E35.83120
G1 X85.977 Y111.705 F3600.000
G1 X98.898 Y85.925 E38.18525 F1800.000
G1 X99.339 Y85.925 E38.22124
G1 X85.977 Y112.585 E40.65562
G1 X85.977 Y113.464 F3600.000
G1 X99.780 Y85.925 E43.17033 F1800.000
G1 X100.221 Y85.925 E43.20632
G1 X86.112 Y114.075 E45.77683
G1 X86.553 Y114.075 E45.81282
G1 X100.662 Y85.925 E48.38333
G1 X101.103 Y85.925 E48.41932
G1 X86.993 Y114.075 E50.98983
G1 X87.434 Y114.075 E51.02582
G1 X101.544 Y85.925 E53.59633
G1 X101.984 Y85.925 E53.63232
G1 X87.875 Y114.075 E56.20283
G1 X88.316 Y114.075 E56.23882
G1 X102.425 Y85.925 E58.80933
G1 X102.866 Y85.925 E58.84532
G1 X88.757 Y114.075 E61.41583
G1 X89.198 Y114.075 E61.45182
G1 X103.307 Y85.925 E64.02233
G1 X103.748 Y85.925 E64.05832
G1 X89.639 Y114.075 E66.62883
G1 X90.080 Y114.075 E66.66482
G1 X104.189 Y85.925 E69.23533
G1 X104.630 Y85.925 E69.27132
G1 X90.521 Y114.075 E71.84183
G1 X90.961 Y114.075 E71.87782
G1 X105.071 Y85.925 E74.44833
G1 X105.512 Y85.925 E74.48432
G1 X91.402 Y114.075 E77.05483
G1 X91.843 Y114.075 E77.09082
G1 X105.952 Y85.925 E79.66133
G1 X106.393 Y85.925 E79.69732
G1 X92.284 Y114.075 E82.26783
G1 X92.725 Y114.075 E82.30382
G1 X106.834 Y85.925 E84.87433
G1 X107.275 Y85.925 E84.91032
G1 X93.166 Y114.075 E87.48083
G1 X93.607 Y114.075 E87.51682
G1 X107.716 Y85.925 E90.08733
G1 X108.157 Y85.925 E90.12332
G1 X94.048 Y114.075 E92.69383
G1 X94.488 Y114.075 E92.72982
G1 X108.598 Y85.925 E95.30033
G1 X109.039 Y85.925 E95.33632
G1 X94.929 Y114.075 E97.90683
G1 X95.370 Y114.075 E97.94282
G1 X109.479 Y85.925 E100.51333
G1 X109.920 Y85.925 E100.54932
G1 X95.811 Y114.075 E103.11983
G1 X96.252 Y114.075 E103.15583
G1 X110.361 Y85.925 E105.72634
G1 X110.802 Y85.925 E105.76233
G1 X96.693 Y114.075 E108.33284
G1 X97.134 Y114.075 E108.36883
G1 X111.243 Y85.925 E110.93934
G1 X111.684 Y85.925 E110.97533
G1 X97.575 Y114.075 E113.54584
G1 X98.016 Y114.075 E113.58183
G1 X112.125 Y85.925 E116.15234
G1 X112.566 Y85.925 E116.18833
G1 X98.456 Y114.075 E118.75884
G1 X98.897 Y114.075 E118.79483
G1 X113.007 Y85.925 E121.36534
G1 X113.447 Y85.925 E121.40133
G1 X99.338 Y114.075 E123.97184
G1 X99.779 Y114.075 E124.00783
G1 X113.888 Y85.925 E126.57834
G1 X114.023 Y86.536 E126.62943
G1 X100.220 Y114.075 E129.14413
G1 X100.661 Y114.075 E129.18012
G1 X114.023 Y87.415 E131.61450
G1 X114.023 Y88.295 F3600.000
G1 X101.102 Y114.075 E133.96856 F1800.000
G1 X101.543 Y114.075 E134.00455
G1 X114.023 Y89.175 E136.27829
G1 X114.023 Y90.054 F3600.000
G1 X101.983 Y114.075 E138.47170 F1800.000
G1 X102.424 Y114.075 E138.50769
G1 X114.023 Y90.934 E140.62078
G1 X114.023 Y91.814 F3600.000
G1 X102.865 Y114.075 E142.65355 F1800.000
G1 X103.306 Y114.075 E142.68954
G1 X114.023 Y92.693 E144.64199
G1 X114.023 Y93.573 F3600.000
G1 X103.747 Y114.075 E146.51411 F1800.000
G1 X104.188 Y114.075 E146.55010
G1 X114.023 Y94.453 E148.34190
G1 X114.023 Y95.332 F3600.000
G1 X104.629 Y114.075 E150.05338 F1800.000
G1 X105.070 Y114.075 E150.08937
G1 X114.023 Y96.212 E151.72053
G1 X114.023 Y97.092 F3600.000
G1 X105.511 Y114.075 E153.27136 F1800.000
G1 X105.951 Y114.075 E153.30735
G1 X114.023 Y97.971 E154.77786
G1 X114.023 Y98.851 F3600.000
G1 X106.392 Y114.075 E156.16805 F1800.000
G1 X106.833 Y114.075 E156.20404
G1 X114.023 Y99.730 E157.51390
G1 X114.023 Y100.610 F3600.000
G1 X107.274 Y114.075 E158.74345 F1800.000
G1 X107.715 Y114.075 E158.77944
G1 X114.023 Y101.490 E159.92866
G1 X114.023 Y102.369 F3600.000
G1 X108.156 Y114.075 E160.99755 F1800.000
G1 X108.597 Y114.075 E161.03355
G1 X114.023 Y103.249 E162.02212
G1 X114.023 Y104.129 F3600.000
G1 X109.038 Y114.075 E162.93037 F1800.000
G1 X109.478 Y114.075 E162.96636
G1 X114.023 Y105.008 E163.79429
G1 X114.023 Y105.888 F3600.000
G1 X109.919 Y114.075 E164.54190 F1800.000
G1 X110.360 Y114.075 E164.57789
G1 X114.023 Y106.768 E165.24518
G1 X114.023 Y107.647 F3600.000
G1 X110.801 Y114.075 E165.83214 F1800.000
G1 X111.242 Y114.075 E165.86813
G1 X114.023 Y108.527 E166.37477
G1 X114.023 Y109.407 F3600.000
G1 X111.683 Y114.075 E166.80109 F1800.000
G1 X112.124 Y114.075 E166.83708
G1 X114.023 Y110.286 E167.18307
G1 X114.023 Y111.166 F3600.000
G1 X112.565 Y114.075 E167.44874 F1800.000
G1 X113.006 Y114.075 E167.48473
G1 X114.023 Y112.046 E167.67008
G1 X114.023 Y112.925 F3600.000
G1 X113.446 Y114.075 E167.77511 F1800.000
G1 X114.023 Y113.805 E167.82709
G1 X113.887 Y114.075 E167.85180
M104 S230 ; set temperature
M140 S60 ; wait for bed temperature to be reached
G1 Z1.600 F3600.000
G1 E165.85180 F2400.00000
G92 E0
G1 X113.943 Y114.528 F3600.000
G1 X114.528 Y113.943 F3600.000
G1 X113.700 Y113.114 F3600.000
G1 X104.472 Y104.089 F3600.000
G1 E2.00000 F2400.00000
G1 X103.906 Y104.655 E2.06533 F900.000
G1 X103.038 Y105.263 E2.15180
G1 X102.078 Y105.711 E2.23827
G1 X101.055 Y105.985 E2.32475
G1 X100.000 Y106.077 E2.41122
G1 X98.945 Y105.985 E2.49769
G1 X97.922 Y105.711 E2.58417
G1 X96.961 Y105.263 E2.67064
G1 X96.094 Y104.655 E2.75711
G1 X95.345 Y103.906 E2.84358
G1 X94.737 Y103.039 E2.93005
G1 X94.305 Y102.113 E3.01344
G1 X94.016 Y101.059 E3.10267
G1 X93.923 Y100.000 E3.18943
G1 X94.015 Y98.945 E3.27591
G1 X94.289 Y97.922 E3.36238
G1 X94.737 Y96.962 E3.44885
G1 X95.345 Y96.094 E3.53532
G1 X96.094 Y95.345 E3.62179
G1 X96.961 Y94.737 E3.70827
G1 X97.922 Y94.290 E3.79474
G1 X98.945 Y94.015 E3.88121
G1 X99.962 Y93.926 E3.96459 F900.000
G1 X101.052 Y94.014 E4.05383
G1 X102.078 Y94.290 E4.14059
G1 X103.038 Y94.737 E4.22706
G1 X103.906 Y95.345 E4.31354
G1 X104.655 Y96.094 E4.40001
G1 X105.263 Y96.962 E4.48648
G1 X105.711 Y97.922 E4.57295
G1 X105.993 Y98.978 E4.66221
G1 X106.077 Y100.003 E4.74622
G1 X105.985 Y101.055 E4.83241
G1 X105.711 Y102.078 E4.91888
G1 X105.263 Y103.039 E5.00536
G1 X104.655 Y103.906 E5.09183
G1 X104.525 Y104.036 E5.10685
G1 X104.177 Y103.794 F3600.000
G1 X103.637 Y104.334 E5.16920 F900.000
G1 X102.829 Y104.900 E5.24970
G1 X101.935 Y105.317 E5.33021
G1 X100.982 Y105.572 E5.41071
G1 X100.000 Y105.658 E5.49122
G1 X99.018 Y105.572 E5.57173
G1 X98.065 Y105.317 E5.65223
G1 X97.171 Y104.900 E5.73274
G1 X96.363 Y104.334 E5.81325
G1 X95.666 Y103.637 E5.89375
G1 X95.100 Y102.829 E5.97426
G1 X94.699 Y101.968 E6.05179
G1 X94.428 Y100.985 E6.13505
G1 X94.342 Y100.000 E6.21574
G1 X94.428 Y99.018 E6.29624
G1 X94.683 Y98.065 E6.37675
G1 X95.100 Y97.171 E6.45726
G1 X95.666 Y96.363 E6.53776
G1 X96.363 Y95.666 E6.61827
G1 X97.171 Y95.100 E6.69878
G1 X98.065 Y94.684 E6.77928
G1 X99.018 Y94.428 E6.85979
G1 X99.964 Y94.345 E6.93731 F900.000
G1 X100.980 Y94.428 E7.02058
G1 X101.935 Y94.684 E7.10127
G1 X102.829 Y95.100 E7.18177
G1 X103.637 Y95.666 E7.26228
G1 X104.334 Y96.363 E7.34279
G1 X104.900 Y97.171 E7.42329
G1 X105.317 Y98.065 E7.50380
G1 X105.580 Y99.049 E7.58698
G1 X105.658 Y100.002 E7.66502
G1 X105.572 Y100.982 E7.74535
G1 X105.317 Y101.935 E7.82586
G1 X104.900 Y102.829 E7.90637
G1 X104.334 Y103.637 E7.98687
G1 X104.230 Y103.741 E7.99891
G1 X103.890 Y103.508 F3600.000
G1 X103.375 Y104.022 E8.05836 F900.000
G1 X102.625 Y104.547 E8.13308
G1 X101.796 Y104.934 E8.20780
G1 X100.912 Y105.171 E8.28252
G1 X100.000 Y105.251 E8.35724
G1 X99.088 Y105.171 E8.43196
G1 X98.204 Y104.934 E8.50667
G1 X97.375 Y104.547 E8.58139
G1 X96.625 Y104.022 E8.65611
G1 X95.978 Y103.375 E8.73083
G1 X95.453 Y102.625 E8.80555
G1 X95.081 Y101.828 E8.87740
G1 X94.829 Y100.913 E8.95488
G1 X94.749 Y100.000 E9.02966
G1 X94.829 Y99.088 E9.10438
G1 X95.066 Y98.204 E9.17910
G1 X95.453 Y97.375 E9.25382
G1 X95.978 Y96.625 E9.32854
G1 X96.625 Y95.978 E9.40326
G1 X97.375 Y95.453 E9.47797
G1 X98.204 Y95.066 E9.55269
G1 X99.088 Y94.829 E9.62741
G1 X99.965 Y94.752 E9.69926 F900.000
G1 X100.911 Y94.829 E9.77674
G1 X101.796 Y95.066 E9.85153
G1 X102.625 Y95.453 E9.92624
G1 X103.375 Y95.978 E10.00096
G1 X104.022 Y96.625 E10.07568
G1 X104.547 Y97.375 E10.15040
G1 X104.934 Y98.204 E10.22512
G1 X105.179 Y99.119 E10.30241
G1 X105.251 Y100.001 E10.37466
G1 X105.171 Y100.912 E10.44931
G1 X104.934 Y101.796 E10.52403
G1 X104.547 Y102.625 E10.59875
G1 X104.022 Y103.375 E10.67347
G1 X103.943 Y103.454 E10.68261
G1 X111.627 Y111.627 F3600.000
G1 X88.373 Y111.627 E12.58092 F3600.000
G1 X88.373 Y88.373 E14.47922
G1 X111.627 Y88.373 E16.37752
G1 X111.627 Y111.552 E18.26970
G1 X112.045 Y112.045 F3600.000
G1 X87.955 Y112.045 E20.23620 F3600.000
G1 X87.955 Y87.955 E22.20269
G1 X112.045 Y87.955 E24.16919
G1 X112.045 Y111.970 E26.12957
G1 X112.450 Y112.450 F3600.000
G1 X87.550 Y112.450 E28.16222 F3600.000
G1 X87.550 Y87.550 E30.19487
G1 X112.450 Y87.550 E32.22753
G1 X112.450 Y112.375 E34.25406
G1 X111.069 Y111.343 F3600.000
G1 X111.343 Y111.069 E34.28638 F3600.000
G1 X111.343 Y110.283 E34.35214
G1 X110.283 Y111.343 E34.47746
G1 X109.496 Y111.343 E34.54322
G1 X111.343 Y109.496 E34.76154
G1 X111.343 Y108.710 E34.82730
G1 X108.710 Y111.343 E35.13861
G1 X107.924 Y111.343 E35.20437
G1 X111.343 Y107.924 E35.60869
G1 X111.343 Y107.137 E35.67444
G1 X107.137 Y111.343 E36.17175
G1 X106.351 Y111.343 E36.23751
G1 X111.343 Y106.351 E36.82782
G1 X111.343 Y105.565 E36.89358
G1 X105.565 Y111.343 E37.57688
G1 X104.778 Y111.343 E37.64264
G1 X111.343 Y104.778 E38.41894
G1 X111.343 Y103.992 E38.48469
G1 X103.992 Y111.343 E39.35399
G1 X103.205 Y111.343 E39.41975
G1 X111.343 Y103.205 E40.38204
G1 X111.343 Y102.419 E40.44780
G1 X102.419 Y111.343 E41.50309
G1 X101.633 Y111.343 E41.56885
G1 X111.343 Y101.633 E42.71713
G1 X111.343 Y100.846 E42.78289
G1 X100.846 Y111.343 E44.02417
G1 X100.060 Y111.343 E44.08993
G1 X111.343 Y100.060 E45.42421
G1 X111.343 Y99.274 E45.48997
G1 X99.274 Y111.343 E46.91725
G1 X98.487 Y111.343 E46.98300
G1 X111.343 Y98.487 E48.50328
G1 X111.343 Y97.701 E48.56904
G1 X105.047 Y103.997 E49.31359
G1 X103.997 Y105.047 F3600.000
G1 X97.701 Y111.343 E50.05815 F3600.000
G1 X96.914 Y111.343 E50.12390
G1 X102.267 Y105.990 E50.75691
G1 X101.203 Y106.268 E50.84892
G1 X96.128 Y111.343 E51.44903
G1 X95.342 Y111.343 E51.51479
G1 X100.341 Y106.343 E52.10599
G1 X99.582 Y106.316 E52.16951
G1 X94.555 Y111.343 E52.76392
G1 X93.769 Y111.343 E52.82968
G1 X98.877 Y106.234 E53.43382
G1 X98.257 Y106.068 E53.48751
G1 X92.982 Y111.343 E54.11129
G1 X92.196 Y111.343 E54.17705
G1 X97.673 Y105.866 E54.82471
G1 X97.136 Y105.616 E54.87419
G1 X91.410 Y111.343 E55.55142
G1 X90.623 Y111.343 E55.61717
G1 X96.638 Y105.328 E56.32848
G1 X96.176 Y105.004 E56.37569
G1 X89.837 Y111.343 E57.12530
G1 X89.051 Y111.343 E57.19106
G1 X95.749 Y104.644 E57.98318
G1 X95.356 Y104.251 E58.02968
G1 X88.657 Y110.949 E58.82181
G1 X88.657 Y110.163 E58.88757
G1 X94.996 Y103.824 E59.63718
G1 X94.672 Y103.362 E59.68439
G1 X88.657 Y109.377 E60.39570
G1 X88.657 Y108.590 E60.46146
G1 X94.384 Y102.864 E61.13868
G1 X94.134 Y102.327 E61.18817
G1 X88.657 Y107.804 E61.83582
G1 X88.657 Y107.018 E61.90158
G1 X93.935 Y101.739 E62.52576
G1 X93.766 Y101.123 E62.57925
G1 X88.657 Y106.231 E63.18338
G1 X88.657 Y105.445 E63.24913
G1 X93.684 Y100.418 E63.84355
G1 X93.657 Y99.659 E63.90707
G1 X88.657 Y104.658 E64.49827
G1 X88.657 Y103.872 E64.56403
G1 X93.732 Y98.797 E65.16414
G1 X94.010 Y97.733 E65.25615
G1 X88.657 Y103.086 E65.88915
G1 X88.657 Y102.299 E65.95491
G1 X94.953 Y96.003 E66.69948
G1 X96.003 Y94.953 F3600.000
G1 X102.299 Y88.657 E67.44404 F3600.000
G1 X101.513 Y88.657 E67.50979
G1 X88.657 Y101.513 E69.03007
G1 X88.657 Y100.726 E69.09582
G1 X100.726 Y88.657 E70.52310
G1 X99.940 Y88.657 E70.58886
G1 X88.657 Y99.940 E71.92314
G1 X88.657 Y99.154 E71.98890
G1 X99.154 Y88.657 E73.23018
G1 X98.367 Y88.657 E73.29594
G1 X88.657 Y98.367 E74.44422
G1 X88.657 Y97.581 E74.50998
G1 X97.581 Y88.657 E75.56527
G1 X96.795 Y88.657 E75.63103
G1 X88.657 Y96.795 E76.59332
G1 X88.657 Y96.008 E76.65908
G1 X96.008 Y88.657 E77.52837
G1 X95.222 Y88.657 E77.59413
G1 X88.657 Y95.222 E78.37043
G1 X88.657 Y94.435 E78.43619
G1 X94.435 Y88.657 E79.11949
G1 X93.649 Y88.657 E79.18525
G1 X88.657 Y93.649 E79.77556
G1 X88.657 Y92.863 E79.84131
G1 X92.863 Y88.657 E80.33862
G1 X92.076 Y88.657 E80.40438
G1 X88.657 Y92.076 E80.80869
G1 X88.657 Y91.290 E80.87445
G1 X91.290 Y88.657 E81.18577
G1 X90.504 Y88.657 E81.25153
G1 X88.657 Y90.504 E81.46985
G1 X88.657 Y89.717 E81.53560
G1 X89.717 Y88.657 E81.66093
G1 X88.931 Y88.657 E81.72668
G1 X88.657 Y88.931 E81.75901
G1 X97.733 Y94.010 F3600.000
G1 X103.086 Y88.657 E82.39202 F3600.000
G1 X103.872 Y88.657 E82.45778
G1 X98.797 Y93.732 E83.05790
G1 X99.659 Y93.657 E83.13024
G1 X104.658 Y88.657 E83.72144
G1 X105.445 Y88.657 E83.78719
G1 X100.416 Y93.687 E84.38194
G1 X101.123 Y93.766 E84.44143
G1 X106.231 Y88.657 E85.04557
G1 X107.018 Y88.657 E85.11133
G1 X101.743 Y93.932 E85.73512
G1 X102.327 Y94.134 E85.78683
G1 X107.804 Y88.657 E86.43448
G1 X108.590 Y88.657 E86.50024
G1 X102.864 Y94.384 E87.17747
G1 X103.362 Y94.672 E87.22560
G1 X109.377 Y88.657 E87.93691
G1 X110.163 Y88.657 E88.00267
G1 X103.824 Y94.996 E88.75227
