; generated by Slic3r 1.2.9 on 2019-02-27 at 18:51:08

; external perimeters extrusion width = 0.50mm
; perimeters extrusion width = 0.52mm
; infill extrusion width = 0.52mm
; solid infill extrusion width = 0.52mm
; top infill extrusion width = 0.52mm
; support material extrusion width = 0.50mm

M107
M190 S65 ; set bed temperature
M104 S240 ; set temperature
G28 ; home all axes
G1 Z5 F5000 ; lift nozzle

M109 S240 ; wait for temperature to be reached
G21 ; set units to millimeters
G90 ; use absolute coordinates
M82 ; use absolute distances for extrusion
G92 E0
G1 Z0.700 F3600.000
G1 E-2.00000 F2400.00000
G92 E0
G1 X69.043 Y83.645 F3600.000
G1 E2.00000 F2400.00000
G1 X70.981 Y82.335 E2.43418 F1800.000
G1 X73.816 Y81.724 E2.97245
G1 X126.256 Y81.724 E12.70362
G1 X128.981 Y82.286 E13.22000 F1800.000
G1 X131.010 Y83.592 E13.66783
G1 X132.431 Y85.451 E14.10201
G1 X133.217 Y88.625 E14.70877
G1 X133.219 Y111.097 E18.87903
G1 X132.489 Y114.186 E19.46797
G1 X132.346 Y114.471 E19.52724
G1 X130.957 Y116.355 E19.96142
G1 X129.019 Y117.665 E20.39559
G1 X126.184 Y118.276 E20.93386
G1 X73.744 Y118.276 E30.66504
G1 X71.017 Y117.713 E31.18177
G1 X70.949 Y117.684 E31.19562
G1 X68.988 Y116.407 E31.62980
G1 X67.568 Y114.547 E32.06398
G1 X66.783 Y111.375 E32.67044
G1 X66.781 Y88.903 E36.84065
G1 X67.511 Y85.814 E37.42960
G1 X67.654 Y85.529 E37.48884
G1 X68.998 Y83.706 E37.90910
G1 E35.90910 F2400.00000
G92 E0
G1 X71.785 Y86.574 F3600.000
G1 E2.00000 F2400.00000
G1 X73.010 Y86.167 E2.23968 F1800.000
G1 X73.203 Y86.062 E2.28025
G1 X73.800 Y85.893 E2.39552
G1 X125.109 Y85.893 E11.91694
G1 X125.359 Y85.819 E11.96527
G1 X127.392 Y85.984 E12.34384
G1 X128.458 Y86.837 E12.59717 F1800.000
G1 X129.055 Y88.786 E12.97531
G1 X129.071 Y89.076 E13.02928
G1 X129.055 Y89.294 E13.06991
G1 X129.055 Y110.118 E16.93420
G1 X129.244 Y111.373 E17.16968
G1 X128.215 Y113.426 E17.59582
G1 X126.847 Y113.880 E17.86332
G1 X125.942 Y114.303 E18.04867
G1 X124.824 Y114.107 E18.25938
G1 X72.987 Y114.107 E27.87880
G1 X71.973 Y113.542 E28.09421
G1 X71.321 Y112.485 E28.32460
G1 X70.945 Y112.006 E28.43755
G1 X70.945 Y88.707 E32.76116
G1 X70.975 Y88.449 E32.80932
G1 X71.062 Y88.083 E32.87913
G1 X71.151 Y87.839 E32.92729
G1 X71.751 Y86.641 E33.17597
G1 X72.417 Y87.305 F3600.000
G1 X73.391 Y86.981 E33.36636 F1800.000
G1 X73.566 Y86.887 E33.40322
G1 X73.924 Y86.786 E33.47238
G1 X125.343 Y86.786 E43.01416
G1 X125.553 Y86.731 E43.05438
G1 X127.048 Y86.852 E43.33273 F1800.000
G1 X127.687 Y87.364 E43.48473
G1 X128.146 Y88.833 E43.77040
G1 X128.174 Y89.089 E43.81820
G1 X128.162 Y110.187 E47.73334
G1 X128.318 Y111.228 E47.92866
G1 X127.583 Y112.695 E48.23323
G1 X126.515 Y113.050 E48.44195
G1 X125.820 Y113.373 E48.58421
G1 X124.904 Y113.214 E48.75685
G1 X73.219 Y113.214 E58.34808
G1 X72.610 Y112.875 E58.47732
G1 X72.053 Y111.972 E58.67427
G1 X71.838 Y111.696 E58.73925
G1 X71.838 Y88.759 E62.99563
G1 X71.856 Y88.604 E63.02452
G1 X71.972 Y88.193 E63.10384
G1 X72.384 Y87.372 E63.27427
G1 E61.27427 F2400.00000
G92 E0
G1 X73.757 Y88.172 F3600.000
G1 X125.414 Y88.000 F3600.000
G1 X126.243 Y88.172 F3600.000
G1 X126.657 Y88.343 F3600.000
G1 X126.703 Y87.720 F3600.000
G1 E2.00000 F2400.00000
G1 X126.916 Y87.890 E2.05067 F1800.000
G1 X127.268 Y89.017 E2.26974
G1 X127.277 Y89.103 E2.28567
G1 X127.269 Y110.531 E6.26221
G1 X127.330 Y110.680 E6.29199
G1 X127.392 Y111.083 E6.36771
G1 X126.950 Y111.965 E6.55071
G1 X126.399 Y112.148 E6.65851
G1 X126.330 Y112.147 E6.67127
G1 X125.699 Y112.444 E6.80079
G1 X125.249 Y112.363 E6.88555
G1 X125.153 Y112.322 E6.90504
G1 X73.451 Y112.322 E16.49936
G1 X73.248 Y112.209 E16.54245
G1 X72.731 Y111.385 E16.72291
G1 X72.731 Y88.811 E20.91206
G1 X72.793 Y88.546 E20.96247
G1 X73.050 Y88.035 E21.06858
G1 X73.771 Y87.795 E21.20968
G1 X73.929 Y87.712 E21.24282
G1 X74.049 Y87.678 E21.26587
G1 X125.577 Y87.678 E30.82800
G1 X125.723 Y87.640 E30.85596
G1 X126.628 Y87.714 E31.02462
G1 E29.02462 F2400.00000
G92 E0
G1 X126.187 Y111.375 F3600.000
G1 E2.00000 F2400.00000
G1 X126.323 Y111.105 E2.02470 F1800.000
G1 X125.747 Y111.375 E2.07661
G1 X126.323 Y110.227 E2.18145
G1 X126.323 Y109.350 E2.25309
G1 X125.308 Y111.375 E2.43806
G1 X124.868 Y111.375 E2.47397
G1 X126.323 Y108.472 E2.73907
G1 X126.323 Y107.595 E2.81071
G1 X124.428 Y111.375 E3.15595
G1 X123.988 Y111.375 E3.19185
G1 X126.323 Y106.717 E3.61722
G1 X126.323 Y105.839 E3.68886
G1 X123.548 Y111.375 E4.19437
G1 X123.108 Y111.375 E4.23027
G1 X126.323 Y104.962 E4.81591
G1 X126.323 Y104.084 E4.88755
G1 X122.669 Y111.375 E5.55332
G1 X122.229 Y111.375 E5.58922
G1 X126.323 Y103.207 E6.33513
G1 X126.323 Y102.329 E6.40677
G1 X121.789 Y111.375 E7.23280
G1 X121.349 Y111.375 E7.26871
G1 X126.323 Y101.452 E8.17488
G1 X126.323 Y100.574 E8.24652
G1 X120.909 Y111.375 E9.23282
G1 X120.469 Y111.375 E9.26873
G1 X126.323 Y99.696 E10.33517
G1 X126.323 Y98.819 E10.40681
G1 X120.029 Y111.375 E11.55338
G1 X119.590 Y111.375 E11.58928
G1 X126.323 Y97.941 E12.81599
G1 X126.323 Y97.064 E12.88763
G1 X119.150 Y111.375 E14.19446
G1 X118.710 Y111.375 E14.23037
G1 X126.323 Y96.186 E15.61734
G1 X126.323 Y95.308 E15.68898
G1 X118.270 Y111.375 E17.15608
G1 X117.830 Y111.375 E17.19199
G1 X126.323 Y94.431 E18.73923
G1 X126.323 Y93.553 E18.81087
G1 X117.390 Y111.375 E20.43824
G1 X116.951 Y111.375 E20.47414
G1 X126.323 Y92.676 E22.18165
G1 X126.323 Y91.798 E22.25329
G1 X116.511 Y111.375 E24.04092
G1 X116.071 Y111.375 E24.07683
G1 X126.323 Y90.921 E25.94460
G1 X126.323 Y90.043 E26.01624
G1 X115.631 Y111.375 E27.96414
G1 X115.191 Y111.375 E28.00005
G1 X126.323 Y89.165 E30.02809
G1 X126.154 Y88.625 E30.07434
G1 X114.751 Y111.375 E32.15176
G1 X114.312 Y111.375 E32.18767
G1 X125.714 Y88.625 E34.26510
G1 X125.274 Y88.625 E34.30100
G1 X113.872 Y111.375 E36.37843
G1 X113.432 Y111.375 E36.41433
G1 X124.835 Y88.625 E38.49176
G1 X124.395 Y88.625 E38.52766
G1 X112.992 Y111.375 E40.60509
G1 X112.552 Y111.375 E40.64100
G1 X123.955 Y88.625 E42.71842
G1 X123.515 Y88.625 E42.75433
G1 X112.112 Y111.375 E44.83175
G1 X111.672 Y111.375 E44.86766
G1 X123.075 Y88.625 E46.94509
G1 X122.635 Y88.625 E46.98099
G1 X111.233 Y111.375 E49.05842
G1 X110.793 Y111.375 E49.09432
G1 X122.196 Y88.625 E51.17175
G1 X121.756 Y88.625 E51.20765
G1 X110.353 Y111.375 E53.28508
G1 X109.913 Y111.375 E53.32099
G1 X121.316 Y88.625 E55.39841
G1 X120.876 Y88.625 E55.43432
G1 X109.473 Y111.375 E57.51174
G1 X109.033 Y111.375 E57.54765
G1 X120.436 Y88.625 E59.62507
G1 X119.996 Y88.625 E59.66098
G1 X108.594 Y111.375 E61.73841
G1 X108.154 Y111.375 E61.77431
G1 X119.556 Y88.625 E63.85174
G1 X119.117 Y88.625 E63.88764
G1 X107.714 Y111.375 E65.96507
G1 X107.274 Y111.375 E66.00098
G1 X118.677 Y88.625 E68.07840
G1 X118.237 Y88.625 E68.11431
G1 X106.834 Y111.375 E70.19173
G1 X106.394 Y111.375 E70.22764
G1 X117.797 Y88.625 E72.30506
G1 X117.357 Y88.625 E72.34097
G1 X105.954 Y111.375 E74.41840
G1 X105.515 Y111.375 E74.45430
G1 X116.917 Y88.625 E76.53173
G1 X116.478 Y88.625 E76.56763
G1 X105.075 Y111.375 E78.64506
G1 X104.635 Y111.375 E78.68096
G1 X116.038 Y88.625 E80.75839
G1 X115.598 Y88.625 E80.79430
G1 X104.195 Y111.375 E82.87172
G1 X103.755 Y111.375 E82.90763
G1 X115.158 Y88.625 E84.98505
G1 X114.718 Y88.625 E85.02096
G1 X103.315 Y111.375 E87.09839
G1 X102.876 Y111.375 E87.13429
G1 X114.278 Y88.625 E89.21172
G1 X113.838 Y88.625 E89.24762
G1 X102.436 Y111.375 E91.32505
G1 X101.996 Y111.375 E91.36095
G1 X113.399 Y88.625 E93.43838
G1 X112.959 Y88.625 E93.47429
G1 X101.556 Y111.375 E95.55171
G1 X101.116 Y111.375 E95.58762
G1 X112.519 Y88.625 E97.66504
G1 X112.079 Y88.625 E97.70095
G1 X100.676 Y111.375 E99.77837
G1 X100.236 Y111.375 E99.81428
G1 X111.639 Y88.625 E101.89171
G1 X111.199 Y88.625 E101.92761
G1 X99.797 Y111.375 E104.00504
G1 X99.357 Y111.375 E104.04094
G1 X110.760 Y88.625 E106.11837
G1 X110.320 Y88.625 E106.15428
G1 X98.917 Y111.375 E108.23170
G1 X98.477 Y111.375 E108.26761
G1 X109.880 Y88.625 E110.34503
G1 X109.440 Y88.625 E110.38094
G1 X98.037 Y111.375 E112.45836
G1 X97.597 Y111.375 E112.49427
G1 X109.000 Y88.625 E114.57170
G1 X108.560 Y88.625 E114.60760
G1 X97.158 Y111.375 E116.68503
G1 X96.718 Y111.375 E116.72093
G1 X108.121 Y88.625 E118.79836
G1 X107.681 Y88.625 E118.83426
G1 X96.278 Y111.375 E120.91169
G1 X95.838 Y111.375 E120.94760
G1 X107.241 Y88.625 E123.02502
G1 X106.801 Y88.625 E123.06093
G1 X95.398 Y111.375 E125.13835
G1 X94.958 Y111.375 E125.17426
G1 X106.361 Y88.625 E127.25169
G1 X105.921 Y88.625 E127.28759
G1 X94.519 Y111.375 E129.36502
G1 X94.079 Y111.375 E129.40092
G1 X105.481 Y88.625 E131.47835
G1 X105.042 Y88.625 E131.51425
G1 X93.639 Y111.375 E133.59168
G1 X93.199 Y111.375 E133.62759
G1 X104.602 Y88.625 E135.70501
G1 X104.162 Y88.625 E135.74092
G1 X92.759 Y111.375 E137.81834
G1 X92.319 Y111.375 E137.85425
G1 X103.722 Y88.625 E139.93168
G1 X103.282 Y88.625 E139.96758
G1 X91.879 Y111.375 E142.04501
G1 X91.440 Y111.375 E142.08091
G1 X102.842 Y88.625 E144.15834
G1 X102.403 Y88.625 E144.19424
G1 X91.000 Y111.375 E146.27167
G1 X90.560 Y111.375 E146.30758
G1 X101.963 Y88.625 E148.38500
G1 X101.523 Y88.625 E148.42091
G1 X90.120 Y111.375 E150.49833
G1 X89.680 Y111.375 E150.53424
G1 X101.083 Y88.625 E152.61166
G1 X100.643 Y88.625 E152.64757
G1 X89.240 Y111.375 E154.72500
G1 X88.801 Y111.375 E154.76090
G1 X100.203 Y88.625 E156.83833
G1 X99.763 Y88.625 E156.87423
G1 X88.361 Y111.375 E158.95166
G1 X87.921 Y111.375 E158.98757
G1 X99.324 Y88.625 E161.06499
G1 X98.884 Y88.625 E161.10090
G1 X87.481 Y111.375 E163.17832
G1 X87.041 Y111.375 E163.21423
G1 X98.444 Y88.625 E165.29165
G1 X98.004 Y88.625 E165.32756
G1 X86.601 Y111.375 E167.40499
G1 X86.161 Y111.375 E167.44089
G1 X97.564 Y88.625 E169.51832
G1 X97.124 Y88.625 E169.55422
G1 X85.722 Y111.375 E171.63165
G1 X85.282 Y111.375 E171.66755
G1 X96.685 Y88.625 E173.74498
G1 X96.245 Y88.625 E173.78089
G1 X84.842 Y111.375 E175.85831
G1 X84.402 Y111.375 E175.89422
G1 X95.805 Y88.625 E177.97164
G1 X95.365 Y88.625 E178.00755
G1 X83.962 Y111.375 E180.08498
G1 X83.522 Y111.375 E180.12088
G1 X94.925 Y88.625 E182.19831
G1 X94.485 Y88.625 E182.23421
G1 X83.083 Y111.375 E184.31164
G1 X82.643 Y111.375 E184.34754
G1 X94.046 Y88.625 E186.42497
G1 X93.606 Y88.625 E186.46088
G1 X82.203 Y111.375 E188.53830
G1 X81.763 Y111.375 E188.57421
G1 X93.166 Y88.625 E190.65163
G1 X92.726 Y88.625 E190.68754
G1 X81.323 Y111.375 E192.76497
G1 X80.883 Y111.375 E192.80087
G1 X92.286 Y88.625 E194.87830
G1 X91.846 Y88.625 E194.91420
G1 X80.444 Y111.375 E196.99163
G1 X80.004 Y111.375 E197.02753
G1 X91.406 Y88.625 E199.10496
G1 X90.967 Y88.625 E199.14087
G1 X79.564 Y111.375 E201.21829
G1 X79.124 Y111.375 E201.25420
G1 X90.527 Y88.625 E203.33162
G1 X90.087 Y88.625 E203.36753
G1 X78.684 Y111.375 E205.44496
G1 X78.244 Y111.375 E205.48086
G1 X89.647 Y88.625 E207.55829
G1 X89.207 Y88.625 E207.59419
G1 X77.804 Y111.375 E209.67162
G1 X77.365 Y111.375 E209.70752
G1 X88.767 Y88.625 E211.78495
G1 X88.328 Y88.625 E211.82086
G1 X76.925 Y111.375 E213.89828
G1 X76.485 Y111.375 E213.93419
G1 X87.888 Y88.625 E216.01161
G1 X87.448 Y88.625 E216.04752
G1 X76.045 Y111.375 E218.12494
G1 X75.605 Y111.375 E218.16085
G1 X87.008 Y88.625 E220.23828
G1 X86.568 Y88.625 E220.27418
G1 X75.165 Y111.375 E222.35161
G1 X74.726 Y111.375 E222.38751
G1 X86.128 Y88.625 E224.46494
G1 X85.688 Y88.625 E224.50084
G1 X74.286 Y111.375 E226.57827
G1 X73.846 Y111.375 E226.61418
G1 X85.249 Y88.625 E228.69160
G1 X84.809 Y88.625 E228.72751
G1 X73.677 Y110.835 E230.75554
G1 X73.677 Y109.957 E230.82718
G1 X84.369 Y88.625 E232.77508
G1 X83.929 Y88.625 E232.81099
G1 X73.677 Y109.079 E234.67876
G1 X73.677 Y108.202 E234.75040
G1 X83.489 Y88.625 E236.53803
G1 X83.049 Y88.625 E236.57394
G1 X73.677 Y107.324 E238.28144
G1 X73.677 Y106.447 E238.35308
G1 X82.610 Y88.625 E239.98045
G1 X82.170 Y88.625 E240.01635
G1 X73.677 Y105.569 E241.56359
G1 X73.677 Y104.691 E241.63523
G1 X81.730 Y88.625 E243.10233
G1 X81.290 Y88.625 E243.13823
G1 X73.677 Y103.814 E244.52520
G1 X73.677 Y102.936 E244.59684
G1 X80.850 Y88.625 E245.90367
G1 X80.410 Y88.625 E245.93958
G1 X73.677 Y102.059 E247.16628
G1 X73.677 Y101.181 E247.23792
G1 X79.971 Y88.625 E248.38449
G1 X79.531 Y88.625 E248.42039
G1 X73.677 Y100.304 E249.48683
G1 X73.677 Y99.426 E249.55847
G1 X79.091 Y88.625 E250.54477
G1 X78.651 Y88.625 E250.58067
G1 X73.677 Y98.548 E251.48684
G1 X73.677 Y97.671 E251.55848
G1 X78.211 Y88.625 E252.38452
G1 X77.771 Y88.625 E252.42042
G1 X73.677 Y96.793 E253.16632
G1 X73.677 Y95.916 E253.23796
G1 X77.331 Y88.625 E253.90373
G1 X76.892 Y88.625 E253.93964
G1 X73.677 Y95.038 E254.52527
G1 X73.677 Y94.161 E254.59691
G1 X76.452 Y88.625 E255.10241
G1 X76.012 Y88.625 E255.13832
G1 X73.677 Y93.283 E255.56368
G1 X73.677 Y92.405 E255.63532
G1 X75.572 Y88.625 E255.98056
G1 X75.132 Y88.625 E256.01646
G1 X73.677 Y91.528 E256.28157
G1 X73.677 Y90.650 E256.35320
G1 X74.692 Y88.625 E256.53817
G1 X74.253 Y88.625 E256.57408
G1 X73.677 Y89.773 E256.67891
G1 X73.677 Y88.895 E256.75055
G1 X73.813 Y88.625 E256.77525
M104 S230 ; set temperature
M140 S60 ; wait for bed temperature to be reached
G1 Z1.080 F3600.000
G1 X73.674 Y88.902 F3600.000
G1 X73.816 Y88.618 E256.79627 F3600.000
G1 X74.285 Y88.618 E256.82728
G1 X73.674 Y89.838 E256.91749
G1 X73.674 Y90.773 E256.97934
G1 X74.754 Y88.618 E257.13874
G1 X75.223 Y88.618 E257.16974
G1 X73.674 Y91.709 E257.39833
G1 X73.674 Y92.645 E257.46019
G1 X75.692 Y88.618 E257.75797
G1 X76.161 Y88.618 E257.78897
G1 X73.674 Y93.580 E258.15594
G1 X73.674 Y94.516 E258.21780
G1 X76.630 Y88.618 E258.65395
G1 X77.099 Y88.618 E258.68496
G1 X73.674 Y95.452 E259.19031
G1 X73.674 Y96.387 E259.25216
G1 X77.568 Y88.618 E259.82670
G1 X78.037 Y88.618 E259.85770
G1 X73.674 Y97.323 E260.50143
G1 X73.674 Y98.258 E260.56328
G1 X78.506 Y88.618 E261.27620
G1 X78.975 Y88.618 E261.30720
G1 X73.674 Y99.194 E262.08931
G1 X73.674 Y100.130 E262.15117
G1 X79.444 Y88.618 E263.00246
G1 X79.912 Y88.618 E263.03346
G1 X73.674 Y101.065 E263.95395
G1 X73.674 Y102.001 E264.01581
G1 X80.381 Y88.618 E265.00548
G1 X80.850 Y88.618 E265.03648
G1 X73.674 Y102.937 E266.09535
G1 X73.674 Y103.872 E266.15721
G1 X81.319 Y88.618 E267.28526
G1 X81.788 Y88.618 E267.31626
G1 X73.674 Y104.808 E268.51351
G1 X73.674 Y105.744 E268.57536
G1 X82.257 Y88.618 E269.84180
G1 X82.726 Y88.618 E269.87280
G1 X73.674 Y106.679 E271.20843
G1 X73.674 Y107.615 E271.27028
G1 X83.195 Y88.618 E272.67509
G1 X83.664 Y88.618 E272.70610
G1 X73.674 Y108.551 E274.18010
G1 X73.674 Y109.486 E274.24196
G1 X84.133 Y88.618 E275.78515
G1 X84.602 Y88.618 E275.81615
G1 X73.674 Y110.422 E277.42853
G1 X73.676 Y111.353 E277.49011
G1 X85.071 Y88.618 E279.17137
G1 X85.540 Y88.618 E279.20237
G1 X74.130 Y111.382 E280.88577
G1 X74.599 Y111.382 E280.91678
G1 X86.009 Y88.618 E282.60018
G1 X86.478 Y88.618 E282.63118
G1 X75.068 Y111.382 E284.31458
G1 X75.537 Y111.382 E284.34558
G1 X86.947 Y88.618 E286.02899
G1 X87.416 Y88.618 E286.05999
G1 X76.006 Y111.382 E287.74339
G1 X76.475 Y111.382 E287.77439
G1 X87.885 Y88.618 E289.45779
G1 X88.354 Y88.618 E289.48880
G1 X76.944 Y111.382 E291.17220
G1 X77.413 Y111.382 E291.20320
G1 X88.823 Y88.618 E292.88660
G1 X89.292 Y88.618 E292.91760
G1 X77.882 Y111.382 E294.60100
G1 X78.351 Y111.382 E294.63201
G1 X89.760 Y88.618 E296.31541
G1 X90.229 Y88.618 E296.34641
G1 X78.820 Y111.382 E298.02981
G1 X79.289 Y111.382 E298.06081
G1 X90.698 Y88.618 E299.74422
G1 X91.167 Y88.618 E299.77522
G1 X79.758 Y111.382 E301.45862
G1 X80.227 Y111.382 E301.48962
G1 X91.636 Y88.618 E303.17302
G1 X92.105 Y88.618 E303.20403
G1 X80.696 Y111.382 E304.88743
G1 X81.164 Y111.382 E304.91843
G1 X92.574 Y88.618 E306.60183
G1 X93.043 Y88.618 E306.63283
G1 X81.633 Y111.382 E308.31624
G1 X82.102 Y111.382 E308.34724
G1 X93.512 Y88.618 E310.03064
G1 X93.981 Y88.618 E310.06164
G1 X82.571 Y111.382 E311.74504
G1 X83.040 Y111.382 E311.77605
G1 X94.450 Y88.618 E313.45945
G1 X94.919 Y88.618 E313.49045
G1 X83.509 Y111.382 E315.17385
G1 X83.978 Y111.382 E315.20485
G1 X95.388 Y88.618 E316.88826
G1 X95.857 Y88.618 E316.91926
G1 X84.447 Y111.382 E318.60266
G1 X84.916 Y111.382 E318.63366
G1 X96.326 Y88.618 E320.31706
G1 X96.795 Y88.618 E320.34807
