; generated by Slic3r 1.2.9 on 2019-04-29 at 15:31:48

; external perimeters extrusion width = 0.50mm
; perimeters extrusion width = 0.52mm
; infill extrusion width = 0.52mm
; solid infill extrusion width = 0.52mm
; top infill extrusion width = 0.52mm
; support material extrusion width = 0.50mm

M107
M190 S65 ; set bed temperature
M104 S240 ; set temperature
G28 ; home all axes
G1 Z5 F5000 ; lift nozzle

M109 S240 ; wait for temperature to be reached
G21 ; set units to millimeters
G90 ; use absolute coordinates
M82 ; use absolute distances for extrusion
G92 E0
G1 Z0.700 F3600.000
G1 E-2.00000 F2400.00000
G92 E0
G1 X90.041 Y89.893 F3600.000
G1 E2.00000 F2400.00000
G1 X90.673 Y89.300 E2.16078 F1800.000
G1 X91.488 Y88.625 E2.35718
G1 X92.270 Y88.065 E2.53563
G1 X92.960 Y87.641 E2.68597
G1 X93.612 Y87.286 E2.82370
G1 X94.712 Y86.784 E3.04804
G1 X95.784 Y86.396 E3.25972
G1 X96.347 Y86.225 E3.36887
G1 X97.108 Y86.040 E3.51419
G1 X98.077 Y85.871 E3.69673
G1 X98.703 Y85.797 E3.81377
G1 X99.463 Y85.745 E3.95506
G1 X100.305 Y85.735 E4.11130
G1 X101.232 Y85.781 E4.28354 F1800.000
G1 X101.780 Y85.836 E4.38574
G1 X102.939 Y86.028 E4.60372
G1 X103.498 Y86.155 E4.71015
G1 X103.995 Y86.294 E4.80596
G1 X104.578 Y86.473 E4.91907
G1 X105.154 Y86.681 E5.03276
G1 X105.961 Y87.030 E5.19593
G1 X106.437 Y87.265 E5.29440
G1 X107.251 Y87.700 E5.46573
G1 X107.618 Y87.921 E5.54513
G1 X108.409 Y88.462 E5.72296
G1 X108.996 Y88.913 E5.86049
G1 X109.390 Y89.246 E5.95604
G1 X110.265 Y90.082 E6.18062
G1 X110.642 Y90.490 E6.28380
G1 X111.117 Y91.058 E6.42112
G1 X111.408 Y91.429 E6.50868
G1 X111.796 Y91.977 E6.63323
G1 X112.432 Y93.010 E6.85835
G1 X112.794 Y93.706 E7.00384
G1 X113.019 Y94.207 E7.10591
G1 X113.408 Y95.196 E7.30311
G1 X113.710 Y96.142 E7.48739
G1 X113.901 Y96.924 E7.63680
G1 X114.029 Y97.621 E7.76831
G1 X114.141 Y98.493 E7.93135
G1 X114.208 Y99.549 E8.12768
G1 X114.166 Y100.998 E8.39685
G1 X114.117 Y101.577 E8.50451
G1 X113.906 Y102.645 E8.70660
G1 X113.328 Y104.697 E9.10232
G1 X112.855 Y105.917 E9.34498
G1 X112.414 Y106.798 E9.52785
G1 X111.688 Y107.946 E9.77996
G1 X110.426 Y109.566 E10.16109
G1 X109.959 Y110.107 E10.29364
G1 X109.327 Y110.700 E10.45442
G1 X108.512 Y111.375 E10.65082
G1 X107.730 Y111.935 E10.82926
G1 X107.040 Y112.359 E10.97961
G1 X106.388 Y112.714 E11.11734
G1 X105.288 Y113.216 E11.34168
G1 X104.216 Y113.604 E11.55336
G1 X103.653 Y113.775 E11.66251
G1 X102.892 Y113.960 E11.80783
G1 X102.211 Y114.083 E11.93623
G1 X101.520 Y114.181 E12.06579
G1 X100.537 Y114.255 E12.24869
G1 X99.434 Y114.257 E12.45335
G1 X98.768 Y114.219 E12.57714
G1 X98.220 Y114.164 E12.67935
G1 X97.061 Y113.972 E12.89732
G1 X96.502 Y113.845 E13.00376
G1 X95.835 Y113.656 E13.13246
G1 X94.846 Y113.319 E13.32632
G1 X94.450 Y113.156 E13.40569
G1 X93.656 Y112.782 E13.56864
G1 X92.749 Y112.300 E13.75928
G1 X91.942 Y111.789 E13.93640
G1 X91.591 Y111.538 E14.01652
G1 X91.004 Y111.087 E14.15403
G1 X90.610 Y110.754 E14.24960
G1 X89.735 Y109.918 E14.47417
G1 X89.358 Y109.510 E14.57735
G1 X88.883 Y108.942 E14.71467
G1 X88.592 Y108.571 E14.80222
G1 X88.204 Y108.023 E14.92678
G1 X87.568 Y106.990 E15.15191
G1 X87.206 Y106.294 E15.29739
G1 X86.726 Y105.170 E15.52430
G1 X86.471 Y104.448 E15.66638
G1 X86.290 Y103.858 E15.78094
G1 X86.099 Y103.076 E15.93035
G1 X85.927 Y102.104 E16.11343
G1 X85.859 Y101.507 E16.22493
G1 X85.790 Y100.349 E16.44017
G1 X85.834 Y99.002 E16.69044
G1 X85.875 Y98.492 E16.78529
G1 X86.094 Y97.355 E17.00018
G1 X86.672 Y95.302 E17.39595
G1 X87.142 Y94.089 E17.63743
G1 X87.586 Y93.202 E17.82138
G1 X88.312 Y92.054 E18.07348
G1 X89.574 Y90.434 E18.45463
G1 X89.990 Y89.948 E18.57328
G1 E16.57328 F2400.00000
G92 E0
G1 X92.983 Y92.620 F3600.000
G1 E2.00000 F2400.00000
G1 X93.341 Y92.501 E2.07005 F1800.000
G1 X93.610 Y92.269 E2.13596
G1 X93.764 Y91.961 E2.19991
G1 X94.343 Y91.768 E2.31306
G1 X94.520 Y91.658 E2.35187
G1 X94.702 Y91.476 E2.39972
G1 X94.991 Y91.266 E2.46591
G1 X96.793 Y90.355 E2.84055
G1 X96.881 Y90.369 E2.85721
G1 X97.087 Y90.354 E2.89545
G1 X98.305 Y89.975 E3.13220
G1 X98.378 Y89.996 E3.14631
G1 X98.585 Y90.006 E3.18488
G1 X99.600 Y89.820 E3.37633
G1 X99.722 Y89.868 E3.40068
G1 X99.910 Y89.899 E3.43586 F1800.000
G1 X100.836 Y89.852 E3.60800
G1 X100.942 Y89.906 E3.62997
G1 X101.115 Y89.954 E3.66330
G1 X101.981 Y90.015 E3.82449
G1 X102.078 Y90.076 E3.84581
G1 X102.237 Y90.138 E3.87740
G1 X103.046 Y90.286 E4.03006
G1 X103.195 Y90.398 E4.06468
G1 X103.438 Y90.489 E4.11285
G1 X103.568 Y90.497 E4.13700
G1 X103.756 Y90.584 E4.17538
G1 X104.072 Y90.682 E4.23677
G1 X104.179 Y90.779 E4.26344
G1 X104.425 Y90.893 E4.31387
G1 X104.488 Y90.901 E4.32561
G1 X105.348 Y91.405 E4.51063
G1 X105.445 Y91.427 E4.52907
G1 X105.717 Y91.641 E4.59328
G1 X105.948 Y91.784 E4.64371
G1 X106.014 Y91.870 E4.66389
G1 X106.236 Y92.027 E4.71432
G1 X106.352 Y92.064 E4.73678
G1 X106.795 Y92.485 E4.85019
G1 X106.974 Y92.687 E4.90024
G1 X107.201 Y92.819 E4.94903
G1 X107.770 Y93.545 E5.12019
G1 X107.985 Y93.703 E5.16969
G1 X108.506 Y94.566 E5.35669
G1 X108.688 Y94.739 E5.40334
G1 X109.176 Y95.823 E5.62396
G1 X109.349 Y96.027 E5.67354
G1 X109.717 Y97.375 E5.93283
G1 X109.813 Y97.553 E5.97039
G1 X109.918 Y97.674 E6.00022
G1 X110.058 Y99.819 E6.39918
G1 X110.038 Y100.115 E6.45411
G1 X109.963 Y100.487 E6.52468
G1 X109.977 Y100.721 E6.56804
G1 X110.128 Y101.174 E6.65664
G1 X109.452 Y102.521 E6.93636
G1 X109.427 Y102.876 E7.00226
G1 X109.546 Y103.234 E7.07232
G1 X108.283 Y105.752 E7.59510
G1 X107.925 Y105.871 E7.66516
G1 X107.657 Y106.104 E7.73106
G1 X107.017 Y107.380 E7.99592
G1 X106.659 Y107.499 E8.06597
G1 X106.390 Y107.731 E8.13187
G1 X106.236 Y108.039 E8.19582
G1 X105.657 Y108.232 E8.30898
G1 X105.480 Y108.342 E8.34779
G1 X105.298 Y108.524 E8.39564
G1 X105.009 Y108.734 E8.46182
G1 X103.207 Y109.645 E8.83647
G1 X103.119 Y109.631 E8.85313
G1 X102.913 Y109.646 E8.89137
G1 X101.695 Y110.025 E9.12812
G1 X101.622 Y110.004 E9.14223
G1 X101.415 Y109.994 E9.18080
G1 X100.400 Y110.180 E9.37225
G1 X100.278 Y110.132 E9.39659
G1 X100.090 Y110.101 E9.43177
G1 X99.164 Y110.148 E9.60391
G1 X99.058 Y110.094 E9.62589
G1 X98.885 Y110.046 E9.65921
G1 X98.019 Y109.985 E9.82040
G1 X97.922 Y109.924 E9.84172
G1 X97.763 Y109.862 E9.87331
G1 X96.954 Y109.714 E10.02598
G1 X96.805 Y109.602 E10.06060
G1 X96.562 Y109.511 E10.10877
G1 X96.432 Y109.503 E10.13291
G1 X96.244 Y109.416 E10.17129
G1 X95.928 Y109.318 E10.23269
G1 X95.821 Y109.221 E10.25936
G1 X95.575 Y109.107 E10.30978
G1 X95.512 Y109.099 E10.32152
G1 X94.652 Y108.595 E10.50655
G1 X94.555 Y108.573 E10.52499
G1 X94.283 Y108.359 E10.58919
G1 X94.052 Y108.216 E10.63962
G1 X93.986 Y108.130 E10.65981
G1 X93.764 Y107.973 E10.71023
G1 X93.648 Y107.936 E10.73270
G1 X93.205 Y107.515 E10.84610
G1 X93.026 Y107.313 E10.89616
G1 X92.799 Y107.181 E10.94494
G1 X92.230 Y106.455 E11.11611
G1 X92.015 Y106.297 E11.16561
G1 X91.494 Y105.434 E11.35261
G1 X91.312 Y105.261 E11.39926
G1 X90.824 Y104.177 E11.61988
G1 X90.651 Y103.973 E11.66946
G1 X90.283 Y102.625 E11.92874
G1 X90.187 Y102.447 E11.96630
G1 X90.082 Y102.326 E11.99613
G1 X89.942 Y100.181 E12.39510
G1 X89.962 Y99.885 E12.45003
G1 X90.037 Y99.513 E12.52060
G1 X90.023 Y99.279 E12.56396
G1 X89.872 Y98.826 E12.65256
G1 X90.548 Y97.479 E12.93229
G1 X90.573 Y97.124 E12.99820
G1 X90.454 Y96.766 E13.06825
G1 X91.717 Y94.248 E13.59101
G1 X92.075 Y94.129 E13.66106
G1 X92.343 Y93.896 E13.72697
G1 X92.949 Y92.687 E13.97791
G1 X93.615 Y93.351 F3600.000
G1 X93.973 Y93.232 E14.04797 F1800.000
G1 X94.242 Y92.999 E14.11387
G1 X94.396 Y92.691 E14.17782
G1 X94.825 Y92.549 E14.26171
G1 X95.003 Y92.439 E14.30052
G1 X95.285 Y92.156 E14.37449
G1 X95.458 Y92.031 E14.41420
G1 X96.938 Y91.282 E14.72200
G1 X97.153 Y91.269 E14.76201
G1 X98.314 Y90.907 E14.98769
G1 X98.539 Y90.922 E15.02955
G1 X99.511 Y90.744 E15.21299
G1 X99.763 Y90.800 E15.26077 F1800.000
G1 X100.643 Y90.756 E15.42430
G1 X100.871 Y90.832 E15.46890
G1 X101.695 Y90.889 E15.62222
G1 X101.907 Y90.985 E15.66533
G1 X102.678 Y91.126 E15.81077
G1 X102.882 Y91.246 E15.85467
G1 X103.619 Y91.476 E15.99797
G1 X103.776 Y91.595 E16.03457
G1 X104.020 Y91.716 E16.08507
G1 X104.186 Y91.762 E16.11702
G1 X104.906 Y92.197 E16.27320
G1 X105.053 Y92.254 E16.30234
G1 X105.342 Y92.461 E16.36841
G1 X105.704 Y92.764 E16.45598
G1 X105.872 Y92.848 E16.49089
G1 X106.465 Y93.440 E16.64636
G1 X106.640 Y93.550 E16.68474
G1 X107.182 Y94.242 E16.84799
G1 X107.347 Y94.374 E16.88703
G1 X107.846 Y95.199 E17.06606
G1 X107.979 Y95.339 E17.10184
G1 X108.445 Y96.374 E17.31252
G1 X108.560 Y96.526 E17.34781
G1 X108.910 Y97.808 E17.59438
G1 X109.047 Y98.034 E17.64350
G1 X109.164 Y99.818 E17.97539
G1 X109.152 Y99.996 E18.00834
G1 X109.090 Y100.300 E18.06602
G1 X109.042 Y100.439 E18.09326
G1 X109.041 Y100.733 E18.14783
G1 X109.164 Y101.104 E18.22043
G1 X108.489 Y102.452 E18.50015
G1 X108.463 Y102.806 E18.56605
G1 X108.582 Y103.164 E18.63611
G1 X107.651 Y105.022 E19.02166
G1 X107.293 Y105.141 E19.09171
G1 X107.024 Y105.373 E19.15761
G1 X106.385 Y106.649 E19.42247
G1 X106.027 Y106.768 E19.49252
G1 X105.758 Y107.001 E19.55843
G1 X105.604 Y107.309 E19.62238
G1 X105.175 Y107.451 E19.70627
G1 X104.997 Y107.561 E19.74508
G1 X104.715 Y107.844 E19.81905
G1 X104.542 Y107.969 E19.85876
G1 X103.062 Y108.718 E20.16656
G1 X102.847 Y108.731 E20.20657
G1 X101.686 Y109.093 E20.43224
G1 X101.461 Y109.078 E20.47411
G1 X100.489 Y109.256 E20.65754
G1 X100.237 Y109.200 E20.70533
G1 X99.357 Y109.244 E20.86886
G1 X99.129 Y109.168 E20.91346
G1 X98.305 Y109.110 E21.06678
G1 X98.093 Y109.015 E21.10988
G1 X97.322 Y108.874 E21.25533
G1 X97.118 Y108.754 E21.29923
G1 X96.381 Y108.524 E21.44252
G1 X96.224 Y108.405 E21.47913
G1 X95.980 Y108.284 E21.52963
G1 X95.814 Y108.238 E21.56157
G1 X95.094 Y107.803 E21.71776
G1 X94.947 Y107.746 E21.74690
G1 X94.658 Y107.539 E21.81297
G1 X94.296 Y107.236 E21.90053
G1 X94.128 Y107.152 E21.93545
G1 X93.535 Y106.560 E22.09092
G1 X93.360 Y106.450 E22.12929
G1 X92.818 Y105.758 E22.29254
G1 X92.653 Y105.626 E22.33159
G1 X92.154 Y104.801 E22.51061
G1 X92.021 Y104.661 E22.54639
G1 X91.555 Y103.626 E22.75708
G1 X91.440 Y103.474 E22.79237
G1 X91.090 Y102.192 E23.03894
G1 X90.953 Y101.966 E23.08806
G1 X90.836 Y100.182 E23.41995
G1 X90.848 Y100.004 E23.45290
G1 X90.910 Y99.700 E23.51058
G1 X90.958 Y99.561 E23.53782
G1 X90.959 Y99.267 E23.59239
G1 X90.836 Y98.896 E23.66499
G1 X91.512 Y97.548 E23.94472
G1 X91.537 Y97.194 E24.01063
G1 X91.418 Y96.836 E24.08068
G1 X92.349 Y94.978 E24.46621
G1 X92.707 Y94.859 E24.53626
G1 X92.976 Y94.627 E24.60216
G1 X93.582 Y93.418 E24.85311
G1 X94.248 Y94.081 F3600.000
G1 X94.606 Y93.962 E24.92316 F1800.000
G1 X94.874 Y93.730 E24.98906
G1 X95.029 Y93.422 E25.05301
G1 X95.376 Y93.306 E25.12097
G1 X95.603 Y93.140 E25.17324
G1 X95.703 Y93.001 E25.20484
G1 X95.924 Y92.795 E25.26103
G1 X97.120 Y92.190 E25.50969
G1 X97.219 Y92.183 E25.52814
G1 X98.348 Y91.831 E25.74764
G1 X98.493 Y91.838 E25.77446
G1 X99.423 Y91.668 E25.94988
G1 X99.616 Y91.701 E25.98632
G1 X100.454 Y91.661 E26.14203
G1 X100.627 Y91.709 E26.17535 F1800.000
G1 X101.409 Y91.764 E26.32080
G1 X101.577 Y91.832 E26.35438
G1 X102.310 Y91.966 E26.49261
G1 X102.468 Y92.053 E26.52616
G1 X103.166 Y92.270 E26.66166
G1 X103.269 Y92.341 E26.68496
G1 X103.757 Y92.582 E26.78589
G1 X103.876 Y92.618 E26.80904
G1 X104.641 Y93.065 E26.97341
G1 X105.278 Y93.565 E27.12369
G1 X105.383 Y93.620 E27.14562
G1 X105.956 Y94.193 E27.29604
G1 X106.071 Y94.271 E27.32182
G1 X106.595 Y94.940 E27.47951
G1 X106.699 Y95.028 E27.50471
G1 X107.186 Y95.833 E27.67942
G1 X107.256 Y95.906 E27.69821
G1 X107.714 Y96.925 E27.90552
G1 X107.760 Y96.985 E27.91955
G1 X108.103 Y98.240 E28.16099
G1 X108.175 Y98.375 E28.18937
G1 X108.269 Y99.817 E28.45756
G1 X108.227 Y100.065 E28.50418
G1 X108.107 Y100.322 E28.55689
G1 X108.081 Y100.677 E28.62280
G1 X108.200 Y101.035 E28.69285
G1 X107.525 Y102.382 E28.97257
G1 X107.499 Y102.737 E29.03847
G1 X107.618 Y103.095 E29.10853
G1 X107.019 Y104.291 E29.35684
G1 X106.660 Y104.410 E29.42690
G1 X106.392 Y104.643 E29.49280
G1 X105.752 Y105.919 E29.75766
G1 X105.394 Y106.038 E29.82771
G1 X105.126 Y106.270 E29.89361
G1 X104.971 Y106.578 E29.95756
G1 X104.624 Y106.694 E30.02552
G1 X104.397 Y106.860 E30.07779
G1 X104.297 Y106.999 E30.10939
G1 X104.076 Y107.205 E30.16558
G1 X102.880 Y107.810 E30.41424
G1 X102.781 Y107.817 E30.43269
G1 X101.652 Y108.169 E30.65218
G1 X101.507 Y108.162 E30.67901
G1 X100.577 Y108.332 E30.85443
G1 X100.384 Y108.299 E30.89087
G1 X99.550 Y108.341 E31.04579
G1 X99.373 Y108.291 E31.08000
G1 X98.591 Y108.236 E31.22545
G1 X98.423 Y108.168 E31.25902
G1 X97.690 Y108.034 E31.39726
G1 X97.532 Y107.947 E31.43081
G1 X96.834 Y107.730 E31.56631
G1 X96.731 Y107.659 E31.58961
G1 X96.243 Y107.418 E31.69054
G1 X96.124 Y107.382 E31.71368
G1 X95.359 Y106.935 E31.87806
G1 X94.722 Y106.435 E32.02834
G1 X94.617 Y106.380 E32.05027
G1 X94.044 Y105.807 E32.20069
G1 X93.929 Y105.729 E32.22647
G1 X93.405 Y105.060 E32.38416
G1 X93.301 Y104.972 E32.40936
G1 X92.814 Y104.167 E32.58407
G1 X92.744 Y104.094 E32.60286
G1 X92.286 Y103.075 E32.81017
G1 X92.240 Y103.015 E32.82420
G1 X91.897 Y101.760 E33.06564
G1 X91.825 Y101.625 E33.09402
G1 X91.731 Y100.183 E33.36221
G1 X91.773 Y99.935 E33.40883
G1 X91.893 Y99.678 E33.46154
G1 X91.919 Y99.323 E33.52745
G1 X91.800 Y98.965 E33.59750
G1 X92.475 Y97.617 E33.87724
G1 X92.501 Y97.263 E33.94314
G1 X92.382 Y96.905 E34.01319
G1 X92.981 Y95.709 E34.26148
G1 X93.340 Y95.590 E34.33154
G1 X93.608 Y95.357 E34.39744
G1 X94.214 Y94.148 E34.64839
G1 X95.011 Y94.671 F3600.000
G1 X92.729 Y99.224 E35.06414 F1800.000
G1 E33.06414 F2400.00000
G92 E0
G1 X93.311 Y97.164 F3600.000
G1 E2.00000 F2400.00000
G1 X93.744 Y96.298 E2.07904 F1800.000
G1 E0.07904 F2400.00000
G92 E0
G1 X95.792 Y94.011 F3600.000
G1 E2.00000 F2400.00000
G1 X92.682 Y100.217 E2.56667 F1800.000
G1 X92.733 Y101.013 E2.63175
G1 X96.455 Y93.587 E3.30978
G1 X97.059 Y93.282 E3.36500
G1 X92.854 Y101.671 E4.13104
G1 X93.013 Y102.253 E4.18028
G1 X97.627 Y93.047 E5.02087
G1 X98.161 Y92.881 E5.06653
G1 X93.195 Y102.789 E5.97130
G1 X93.408 Y103.263 E6.01371
G1 X98.668 Y92.768 E6.97199
G1 X99.164 Y92.678 E7.01317
G1 X93.639 Y103.702 E8.01979
G1 X93.885 Y104.109 E8.05867
G1 X99.629 Y92.648 E9.10521
G1 X100.092 Y92.625 E9.14299
G1 X94.151 Y104.478 E10.22531
G1 X94.426 Y104.828 E10.26169
G1 X100.529 Y92.651 E11.37362
G1 X100.964 Y92.682 E11.40924
G1 X94.719 Y105.143 E12.54709
G1 X95.019 Y105.443 E12.58174
G1 X101.377 Y92.757 E13.74010
G1 X101.790 Y92.833 E13.77435
G1 X95.334 Y105.713 E14.95045
G1 X95.658 Y105.966 E14.98401
G1 X102.180 Y92.954 E16.17220
G1 X102.569 Y93.075 E16.20552
G1 X95.993 Y106.197 E17.40370
G1 X96.339 Y106.406 E17.43669
G1 X102.941 Y93.234 E18.63948
G1 X103.302 Y93.412 E18.67237
G1 X96.698 Y106.588 E19.87546
G1 X97.059 Y106.766 E19.90834
G1 X103.661 Y93.594 E21.11114
G1 X104.007 Y93.803 E21.14413
G1 X97.431 Y106.925 E22.34231
G1 X97.820 Y107.046 E22.37563
G1 X104.342 Y94.034 E23.56382
G1 X104.666 Y94.287 E23.59738
G1 X98.210 Y107.167 E24.77348
G1 X98.623 Y107.243 E24.80773
G1 X104.981 Y94.557 E25.96608
G1 X105.281 Y94.857 E26.00074
G1 X99.036 Y107.318 E27.13859
G1 X99.471 Y107.349 E27.17421
G1 X105.574 Y95.172 E28.28614
G1 X105.849 Y95.522 E28.32252
G1 X99.908 Y107.375 E29.40484
G1 X100.371 Y107.352 E29.44262
G1 X106.115 Y95.891 E30.48916
G1 X106.361 Y96.298 E30.52804
G1 X100.836 Y107.322 E31.53466
G1 X101.332 Y107.232 E31.57584
G1 X106.592 Y96.737 E32.53412
G1 X106.805 Y97.211 E32.57653
G1 X101.839 Y107.119 E33.48130
G1 X102.373 Y106.953 E33.52696
G1 X106.987 Y97.747 E34.36755
G1 X107.146 Y98.329 E34.41680
G1 X102.941 Y106.718 E35.18283
G1 X103.545 Y106.413 E35.23805
G1 X107.267 Y98.987 E35.91609
G1 X107.318 Y99.783 E35.98117
G1 X104.208 Y105.989 E36.54784
G1 X104.989 Y105.329 F3600.000
G1 X107.271 Y100.776 E36.96359 F1800.000
G1 E34.96359 F2400.00000
G92 E0
G1 X106.689 Y102.836 F3600.000
G1 E2.00000 F2400.00000
G1 X106.256 Y103.702 E2.07905 F1800.000
M104 S230 ; set temperature
M140 S60 ; wait for bed temperature to be reached
G1 Z1.080 F3600.000
G1 X106.252 Y103.709 F3600.000
G1 X106.693 Y102.829 E2.14409 F3600.000
